!! 00000] TT[WS
!!!OTL: Puopuo bianda xifu
!!!ARE: Asia, China, Shanxi Dingxiang
!! Ethnic Group: Han
!! WII, 136 (1)
!!!SCT: J0609
!!!YEM: Copyright 1995, estate of Helmut Schaffrath.
**kern
*ICvox
*Ivox
*M2/4
*k[b-]
*F:
{8dd
16dd
16cc
8dd
8gg
=1
8ff
16ff
16dd
8cc
8a
=2
8dd
16dd
16ff
16dd
16cc
8a
=3
8.g
16f
4g}
=4
{8g
8a
4cc
=5
16dd
16cc
16a
16g
8.f
16d
=6
8g
16g
16a
16g
16f
16d
16c
=7
2d}
==
!!!AGN: Xiaodiao. Qingge, Aisu
!!!ONB: ESAC (Essen Associative Code) Database: CHINA
!!!AMT: simple duple
!!!AIN: vox
!!!EED: Helmut Schaffrath
!!!EEV: 1.0
*-
